X: 2
T: Lanssi
O: Finland
B: Tanhuvakka S\"avelmist\"o p.74
Z: John Chambers <jc@trillian.mit.edu>
M: 2/4
L: 1/8
K: Dm
| "C7"C>C C>C | C>C D>E | "F"F>F F>A | c3 c \
| "Bb"d>c B>A | "C7"G>G c>B | "F"A>F F>G | "Dm"A3 A |
| "Gm"B>A G>F | "A7"E>E F>E | "Dm"D>D D>F | A3 A \
| "Gm"B>A G>F | "A7"E>E A>A | "Dm"Dz Dz | D2 z2 |]
